Catalina-light/actions/22/journal-new.svg

<svg xmlns="http://www.w3.org/2000/svg" viewBox="0 0 22 22">
  <defs id="defs3051">
    <style type="text/css" id="current-color-scheme">
      .ColorScheme-Text {
        color:#4d4d4d
      }
      </style>
  </defs>
 <path 
     style="fill:currentColor;fill-opacity:1;stroke:none"      
	 class="ColorScheme-Text"
        d="M 16.585938 3.0097656 L 10.605469 3.5703125 L 4.4335938 3.5703125 C 3.6708705 3.5137815 3.3613281 3.5843291 3.3613281 4.2753906 L 3.3613281 17.560547 C 3.3134211 18.318904 3.6294163 18.302734 4.3710938 18.302734 L 10.671875 18.302734 L 16.636719 19 C 17.097119 19 17.251295 18.842396 17.300781 18.542969 L 17.841797 18.542969 C 17.96451 18.542969 18.067421 18.548089 18.173828 18.53125 C 18.280236 18.516817 18.408294 18.475103 18.498047 18.373047 C 18.5878 18.27099 18.618769 18.146878 18.632812 18.017578 C 18.646542 17.891165 18.644429 17.744576 18.636719 17.556641 L 18.636719 17.544922 L 18.636719 4.2695312 C 18.636719 3.9191593 18.662999 3.6990698 18.501953 3.4882812 C 18.421431 3.3829171 18.286323 3.3268132 18.171875 3.3125 C 18.066061 3.2992693 17.962111 3.3066294 17.841797 3.3222656 L 17.316406 3.3222656 C 17.248044 3.0663089 17.075287 2.9723727 16.585938 3.0097656 z M 18.115234 3.7851562 C 18.121324 3.7902357 18.142556 3.8005226 18.115234 3.796875 C 18.105328 3.7887778 18.148438 3.9389661 18.148438 4.2714844 L 18.148438 17.560547 L 18.148438 17.566406 C 18.156256 17.751335 18.155277 17.885849 18.146484 17.966797 C 18.137692 18.047744 18.120912 18.064041 18.130859 18.052734 C 18.140806 18.041308 18.157847 18.042665 18.109375 18.046875 C 18.060903 18.05349 17.967144 18.052734 17.841797 18.052734 L 17.320312 18.052734 C 17.31766 17.999015 17.320001 17.95907 17.316406 17.900391 L 17.367188 3.8476562 C 17.367187 3.8319445 17.365285 3.823804 17.365234 3.8085938 L 17.855469 3.8085938 L 17.867188 3.8085938 C 17.988873 3.7953631 18.076537 3.7926652 18.113281 3.796875 C 18.113281 3.796875 18.115234 3.796875 18.115234 3.796875 C 18.115478 3.797074 18.114923 3.7847524 18.115234 3.7851562 z M 9.8007812 7.5 L 11.199219 7.5 L 11.199219 10.300781 L 14 10.300781 L 14 11.699219 L 11.199219 11.699219 L 11.199219 14.5 L 9.8007812 14.5 L 9.8007812 11.699219 L 7 11.699219 L 7 10.300781 L 9.8007812 10.300781 L 9.8007812 7.5 z "
     />
</svg>

<svg viewBox="0 0 22 22" xmlns="http://www.w3.org/2000/svg">
<defs>
<style id="current-color-scheme" type="text/css">.ColorScheme-Text {
        color:#4d4d4d
      }</style>
</defs>
<path class="ColorScheme-Text" d="m16.586 3.0098-5.9805 0.56055h-6.1719c-0.76272-0.056531-1.0723 0.014017-1.0723 0.70508v13.285c-0.047907 0.75836 0.26809 0.74219 1.0098 0.74219h6.3008l5.9648 0.69727c0.4604 0 0.61458-0.1576 0.66406-0.45703h0.54102c0.12271 0 0.22562 0.00512 0.33203-0.011719 0.10641-0.014433 0.23447-0.056147 0.32422-0.1582 0.089753-0.10206 0.12072-0.22617 0.13476-0.35547 0.01373-0.12641 0.011617-0.273 0.003907-0.46094v-13.287c0-0.35037 0.02628-0.57046-0.13477-0.78125-0.080522-0.10536-0.21563-0.16147-0.33008-0.17578-0.10581-0.013231-0.20976-0.0058706-0.33008 0.0097656h-0.52539c-0.068362-0.25596-0.24112-0.34989-0.73047-0.3125zm1.5293 0.77539c0.00609 0.0050795 0.027322 0.015366 0 0.011719-0.009906-0.0080972 0.033204 0.14209 0.033204 0.47461v13.295c0.007818 0.18493 0.006839 0.31944-0.001954 0.40039-0.008792 0.080947-0.025572 0.097244-0.015625 0.085937 0.009947-0.011426 0.026988-0.010069-0.021484-0.005859-0.048472 0.006615-0.14223 0.005859-0.26758 0.005859h-0.52148c-0.002652-0.053719-3.11e-4 -0.093664-0.003906-0.15234l0.050782-14.053c-1e-6 -0.015712-0.001903-0.023852-0.001954-0.039062h0.50196c0.12168-0.013231 0.20935-0.015929 0.24609-0.011719h0.001953c2.44e-4 1.99e-4 -3.11e-4 -0.012123 0-0.011719zm-8.3145 3.7148h1.3984v2.8008h2.8008v1.3984h-2.8008v2.8008h-1.3984v-2.8008h-2.8008v-1.3984h2.8008v-2.8008z" fill="currentColor"/>
</svg>
